2/src/images/facebook.svg

<svg width="25" height="26" viewBox="0 0 25 26" fill="none" xmlns="http://www.w3.org/2000/svg">
<path fill-rule="evenodd" clip-rule="evenodd" d="M23.6184 0.449219H1.38158C0.618554 0.449219 0 1.06777 0 1.8308V24.0676C0 24.8307 0.618554 25.4492 1.38158 25.4492H13.3553V15.8001H10.0877V11.9975H13.3377V9.22115C13.3377 5.98869 15.307 4.22992 18.1886 4.22992C19.1675 4.23283 20.1455 4.28847 21.1184 4.39659V7.76939H19.1272C17.5614 7.76939 17.2588 8.51062 17.2588 9.60273V12.015H21.0088L20.5219 15.8001H17.2588V25.4492H23.6184C24.3814 25.4492 25 24.8307 25 24.0676V1.8308C25 1.06777 24.3814 0.449219 23.6184 0.449219Z" fill="#7F7F7F"/>
</svg>

<svg width="25" height="26" fill="none" xmlns="http://www.w3.org/2000/svg"><path fill-rule="evenodd" clip-rule="evenodd" d="M23.618.45H1.382C.619.45 0 1.067 0 1.83v22.238c0 .763.619 1.381 1.382 1.381h11.973V15.8h-3.267v-3.803h3.25V9.222c0-3.232 1.969-4.991 4.85-4.991a27.26 27.26 0 012.93.167v3.372h-1.99c-1.567 0-1.87.742-1.87 1.834v2.412h3.75l-.486 3.785h-3.263v9.65h6.36c.762 0 1.381-.62 1.381-1.382V1.83c0-.763-.619-1.382-1.382-1.382z" fill="#7F7F7F"/></svg>
